Reedweeks/img/ct_1_2.svg

<svg width="24" height="24" viewBox="0 0 24 24" fill="none" xmlns="http://www.w3.org/2000/svg">
<path d="M23.8705 6.94786C23.865 6.94204 23.8592 6.93633 23.8534 6.93079L18.8992 2.52755C18.854 2.48635 18.8012 2.45438 18.7438 2.43337L15.16 1.15242C14.9155 1.06365 14.6454 1.18992 14.5566 1.4344C14.5406 1.47849 14.5313 1.5247 14.5289 1.57156C14.5289 1.67516 14.3735 4.0628 11.9859 4.10048C9.5841 4.0628 9.4334 1.67516 9.42869 1.57156C9.4148 1.31184 9.19299 1.11257 8.93327 1.12646C8.88865 1.12888 8.84456 1.13759 8.80235 1.15242L5.22325 2.44749C5.16579 2.46851 5.11305 2.50048 5.06784 2.54168L0.146572 6.93079C-0.0419781 7.10992 -0.0496308 7.40803 0.129501 7.59658C0.135034 7.6024 0.140745 7.60811 0.146572 7.61365L4.06475 11.5742V22.4057C4.06475 22.6658 4.27561 22.8766 4.53568 22.8766H19.4643C19.7244 22.8766 19.9352 22.6658 19.9352 22.4057V11.5742L23.8534 7.61365C24.042 7.43452 24.0496 7.13647 23.8705 6.94786ZM19.9211 10.232V8.04691C19.9211 7.78683 19.7103 7.57597 19.4502 7.57597C19.1901 7.57597 18.9792 7.78683 18.9792 8.04691V21.9112H4.98778V8.04691C4.98778 7.78683 4.77692 7.57597 4.51685 7.57597C4.25677 7.57597 4.04591 7.78683 4.04591 8.04691V10.2368L1.14966 7.30283L5.63296 3.29047L8.58101 2.22616C8.94622 4.10789 10.7677 5.33733 12.6495 4.97212C14.0391 4.70239 15.1257 3.61582 15.3954 2.22616L18.3435 3.29047L22.8127 7.30283L19.9211 10.232Z" fill="white"/>
</svg>

<svg width="24" height="24" fill="none" xmlns="http://www.w3.org/2000/svg"><path d="M23.87 6.948a.475.475 0 0 0-.017-.017L18.9 2.528a.471.471 0 0 0-.155-.095l-3.584-1.28a.471.471 0 0 0-.631.419c0 .103-.155 2.49-2.543 2.528-2.402-.037-2.553-2.425-2.557-2.528a.47.47 0 0 0-.627-.42L5.223 2.447a.47.47 0 0 0-.155.095L.147 6.93a.471.471 0 0 0 0 .683l3.918 3.96v10.832c0 .26.21.47.47.47h14.93c.26 0 .47-.21.47-.47V11.574l3.918-3.96a.47.47 0 0 0 .017-.666Zm-3.949 3.284V8.047a.47.47 0 1 0-.942 0V21.91H4.988V8.047a.471.471 0 0 0-.942 0v2.19L1.15 7.303 5.633 3.29l2.948-1.064a3.47 3.47 0 0 0 6.814 0l2.948 1.064 4.47 4.013-2.892 2.929Z" fill="#fff"/></svg>
